src/assets/tokens/susde.svg

<svg width="94" height="93" viewBox="0 0 94 93" fill="none" xmlns="http://www.w3.org/2000/svg">
<path d="M46.9222 0.847386H46.9239C72.0683 0.847386 92.4519 21.2309 92.4519 46.3753V46.3771C92.4519 71.5215 72.0683 91.905 46.9239 91.905H46.9222C21.7778 91.905 1.39426 71.5215 1.39426 46.3771V46.3753C1.39426 21.2309 21.7778 0.847386 46.9222 0.847386Z" fill="white" stroke="black" stroke-width="1.67719"/>
<path fill-rule="evenodd" clip-rule="evenodd" d="M39.4843 8.22217C21.5865 11.6696 8.06689 27.416 8.06689 46.3201C8.06689 65.2241 21.5865 80.9705 39.4843 84.418V80.7817C23.5679 77.3888 11.6301 63.2485 11.6301 46.3201C11.6301 29.3916 23.5679 15.2513 39.4843 11.8585V8.22217ZM54.3146 11.8727V8.23505C72.1794 11.7087 85.6654 27.4394 85.6654 46.3201C85.6654 65.2007 72.1794 80.9315 54.3146 84.4051V80.7674C70.1977 77.3494 82.1023 63.2249 82.1023 46.3201C82.1023 29.4152 70.1977 15.2908 54.3146 11.8727Z" fill="black"/>
<path d="M52.3944 45.0239C55.3548 45.5881 57.651 46.6762 59.283 48.2882C60.915 49.8599 61.731 51.8748 61.731 54.3331V58.2019C61.731 61.1438 60.6683 63.5215 58.5429 65.335C56.4175 67.1082 53.6279 67.9948 50.1741 67.9948H48.9786V74.1607H44.8796V67.9948H43.6272C41.35 67.9948 39.3384 67.491 37.5926 66.4835C35.8467 65.4357 34.4804 63.985 33.4936 62.1312C32.5447 60.2371 32.0703 58.0609 32.0703 55.6026H36.1693C36.1693 58.1012 36.8525 60.1363 38.2188 61.708C39.6231 63.2394 41.4638 64.0051 43.741 64.0051H50.0603C52.2995 64.0051 54.1023 63.4812 55.4687 62.4334C56.835 61.3453 57.5182 59.9348 57.5182 58.2019V54.3331C57.5182 52.9629 57.0058 51.7942 55.981 50.8271C54.9942 49.8599 53.6279 49.2352 51.8821 48.9531L41.6346 47.1396C38.7501 46.6157 36.5109 45.5276 34.9168 43.8753C33.3228 42.223 32.5258 40.1476 32.5258 37.649V34.3847C32.5258 31.4428 33.5505 29.1054 35.6 27.3725C37.6874 25.5994 40.4391 24.7128 43.8549 24.7128H44.8796V18.5469H48.9786V24.7128H50.288C53.5141 24.7128 56.1139 25.7606 58.0875 27.8561C60.061 29.9114 61.0478 32.6317 61.0478 36.0169H56.9489C56.9489 33.8004 56.3416 32.0272 55.1271 30.6973C53.9126 29.3674 52.2995 28.7024 50.288 28.7024H43.8549C41.6915 28.7024 39.9646 29.2263 38.6742 30.2741C37.3838 31.2816 36.7386 32.6518 36.7386 34.3847V37.649C36.7386 39.0595 37.213 40.2483 38.1619 41.2155C39.1486 42.1827 40.496 42.8275 42.2039 43.1499L52.3944 45.0239Z" fill="black"/>
</svg>

<svg xmlns="http://www.w3.org/2000/svg" fill="none" viewBox="0 0 94 93"><path fill="#fff" stroke="#000" stroke-width="1.677" d="M46.922.847h.002c25.144 0 45.528 20.384 45.528 45.528v.002c0 25.145-20.384 45.528-45.528 45.528h-.002c-25.144 0-45.528-20.383-45.528-45.528v-.002C1.394 21.231 21.778.847 46.922.847Z"/><path fill="#000" fill-rule="evenodd" d="M39.484 8.222C21.587 11.67 8.067 27.416 8.067 46.32s13.52 34.65 31.417 38.098v-3.636C23.568 77.389 11.63 63.249 11.63 46.32c0-16.928 11.938-31.069 27.854-34.461zm14.83 3.65V8.236C72.18 11.709 85.666 27.44 85.666 46.32S72.18 80.932 54.316 84.405v-3.638C70.198 77.35 82.102 63.225 82.102 46.32S70.198 15.29 54.315 11.873" clip-rule="evenodd"/><path fill="#000" d="M52.394 45.024q4.44.846 6.889 3.264 2.448 2.358 2.448 6.045v3.869q0 4.413-3.188 7.133-3.188 2.66-8.369 2.66H48.98v6.166h-4.1v-6.166h-1.252q-3.416 0-6.034-1.511-2.62-1.572-4.1-4.353-1.422-2.841-1.423-6.528h4.1q0 3.747 2.049 6.105 2.106 2.297 5.522 2.297h6.32q3.358 0 5.408-1.572 2.05-1.632 2.05-4.231v-3.869q0-2.055-1.538-3.506-1.48-1.45-4.099-1.874L41.635 47.14q-4.327-.786-6.718-3.265t-2.391-6.226v-3.264q0-4.414 3.074-7.012 3.131-2.66 8.255-2.66h1.025v-6.166h4.099v6.166h1.309q4.839 0 7.8 3.143 2.96 3.083 2.96 8.16h-4.1q0-3.324-1.82-5.319-1.822-1.995-4.84-1.995h-6.433q-3.245 0-5.18 1.572-1.936 1.512-1.936 4.11v3.265q0 2.116 1.423 3.566 1.48 1.451 4.042 1.935z"/></svg>
